media/icons/rarible.svg

<svg width="40" height="40" viewBox="0 0 40 40" fill="none" xmlns="http://www.w3.org/2000/svg"><rect width="40" height="40" rx="8" fill="#FEDA03"></rect><path d="M27.6007 19.8536C28.8607 19.5262 29.9817 18.5838 29.9817 16.6889C29.9817 13.5342 27.3031 12.8 23.8706 12.8H10.2V27.0064H15.9539V22.185H22.7793C23.8309 22.185 24.446 22.6016 24.446 23.6334V27.0064H30.2V23.4548C30.2 21.5203 29.1087 20.3 27.6007 19.8536ZM22.8785 18.3556H15.9539V16.9667H22.8785C23.6325 16.9667 24.0888 17.0659 24.0888 17.6612C24.0888 18.2564 23.6325 18.3556 22.8785 18.3556Z" fill="black"></path></svg>

<svg width="40" height="40" viewBox="0 0 40 40" fill="none" xmlns="http://www.w3.org/2000/svg"><rect width="40" height="40" rx="8" fill="#FEDA03"/><path d="M27.6 19.854c1.26-.328 2.382-1.27 2.382-3.165 0-3.155-2.679-3.889-6.111-3.889H10.2v14.206h5.754v-4.821h6.825c1.052 0 1.667.417 1.667 1.448v3.373H30.2v-3.551c0-1.935-1.091-3.155-2.6-3.601zm-4.722-1.498h-6.924v-1.39h6.924c.755 0 1.21.1 1.21.695s-.456.695-1.21.695z" fill="#000"/></svg>
